!!!OTL: Neujahrslied
!!!ARE: Europa, Mitteleuropa, Deutschland
!!!SCT: A0529A
!!!YEM: Copyright 1995, estate of Helmut Schaffrath.
**kern
*ICvox
*Ivox
*M4/1
*k[b-]
*d:
=1
{1d
1a
1e
1g
=2
1fn
1e
1d
2r}
{2d
=3
2a
2a
1b
1ccn
1b
=4
1a
1g#
1a
2r}
{2a
=5
1dd
1b
1ccn
1a
=6
1g
1fn
1e
2r}
{2e
=7
1d
2a
2a
1e
1g
=8
1fn
1e
1d
2r}
{2d
=9
1cn
2d
2d
1e
1d
=10
1g
1e
1fn}
{1a
=11
2g
2fn
2e
2d
1fn
1e
=12
0d
0r}
==
!!!AGN: Romanze, Ballade, Lied, religioeses Lied
!! Obsequale. Ingolstadt 1570 No. 12.
!!!ONB: ESAC (Essen Associative Code) Database: ALTDEU
!!!AMT: simple quadruple
!!!AIN: vox
!!!EED: Helmut Schaffrath
!!!EEV: 1.0
*-
